X:92
T:Steyrer Tanz in G, nr. 58
C:traditionell
R:Steirer
A:Hallstatt, Salzkammergut
B:Corpus Musicae Popularis Austriacae (COMPA), 5.Band: J.M.Schmalnauer " Tanz Musik", Verlag Boehlau, Wien 1996
S:manuscript des Johann Michael Schmalnauer um 1820
N:im der quelle in G
Z:abc transcription Simon Wascher
F:http://simonwascher.info/TradArchiv/
M:3/4
L:1/8
K:G
V:1
%violino 1mo
Bd |\
(ce)(Ac).e.A | BdGB d2 | A"2 "c"3 "FAc"3 "F | G2 BDGB |\
(ce)(Ac).e.A | BdGB d2 | A"2 "c"3 "FAc"3 "F | "in D" G4 :|
V:2
%violino 2do
dg |\
facfac | dgBd Tg2 | ceAcec | B2 dgbg |\
facfac | dgBd Tg2 | ceAcec | "in D" B4 :|
